X: 3049
T: Be Thou My Vision
R: waltz
M: 3/4
K: Amajor
M:4/4
EF|A2A4 BA|F2 E4 EF|A2 A4 B>e|c6 BA|
B2 e4 AB|c2 e4 ce|f2 e4 Bc|e6 ce|
f2 f4 [a][g]|[f2] [e4] Bc|e2 A4 GF/A/|F4- FF EF|
A2 {B}c4- ce|fe c4(3ABc|B2 A4 A2|A6:|

